storage/app/icons/phosphoricons/light/car-profile-light.svg

<svg xmlns="http://www.w3.org/2000/svg" fill="currentColor" viewBox="0 0 256 256"><path d="M240 114h-29.51l-43.9-43.9a13.94 13.94 0 0 0-9.9-4.1H44.28a14 14 0 0 0-11.65 6.23L3 116.67A6 6 0 0 0 2 120v48a14 14 0 0 0 14 14h18.6a30 30 0 0 0 58.8 0h69.2a30 30 0 0 0 58.8 0H240a14 14 0 0 0 14-14v-40a14 14 0 0 0-14-14M42.62 78.89a2 2 0 0 1 1.66-.89h112.41a2 2 0 0 1 1.41.59L193.52 114H19.21ZM64 194a18 18 0 1 1 18-18 18 18 0 0 1-18 18m128 0a18 18 0 1 1 18-18 18 18 0 0 1-18 18m50-26a2 2 0 0 1-2 2h-18.6a30 30 0 0 0-58.8 0H93.4a30 30 0 0 0-58.8 0H16a2 2 0 0 1-2-2v-42h226a2 2 0 0 1 2 2Z"/></svg>

<svg xmlns="http://www.w3.org/2000/svg" viewBox="0 0 256 256" fill="currentColor"><path d="M240,114H210.49l-43.9-43.9a13.94,13.94,0,0,0-9.9-4.1H44.28a14,14,0,0,0-11.65,6.23L3,116.67A6,6,0,0,0,2,120v48a14,14,0,0,0,14,14H34.6a30,30,0,0,0,58.8,0h69.2a30,30,0,0,0,58.8,0H240a14,14,0,0,0,14-14V128A14,14,0,0,0,240,114ZM42.62,78.89A2,2,0,0,1,44.28,78H156.69a2,2,0,0,1,1.41.59L193.52,114H19.21ZM64,194a18,18,0,1,1,18-18A18,18,0,0,1,64,194Zm128,0a18,18,0,1,1,18-18A18,18,0,0,1,192,194Zm50-26a2,2,0,0,1-2,2H221.4a30,30,0,0,0-58.8,0H93.4a30,30,0,0,0-58.8,0H16a2,2,0,0,1-2-2V126H240a2,2,0,0,1,2,2Z"/></svg>
